picto/cloak-room-framed.svg

<svg class="color-immutable" width="30" height="30" viewBox="0 0 30 30" fill="none" xmlns="http://www.w3.org/2000/svg"><path d="M30 0H0V30H30V0Z" fill="#2D327D"/><path d="M25.5 3C26.325 3 27 3.675 27 4.5V25.5C27 26.325 26.325 27 25.5 27H4.5C3.675 27 3 26.325 3 25.5V4.5C3 3.675 3.675 3 4.5 3H25.5ZM25.5 2.625H4.5C3.46613 2.625 2.625 3.46613 2.625 4.5V25.5C2.625 26.5339 3.46613 27.375 4.5 27.375H25.5C26.5339 27.375 27.375 26.5339 27.375 25.5V4.5C27.375 3.46613 26.5339 2.625 25.5 2.625Z" fill="white"/><path d="M23.1822 16.2732C23.1803 16.2717 17.6503 13.6795 17.6503 13.6795C17.037 13.3198 16.6179 12.6643 16.5898 11.9086V10.196C16.5898 9.3197 15.873 8.60248 14.9965 8.60248C14.12 8.60248 13.4031 9.3197 13.4031 10.196V10.2626C13.4031 10.2949 13.4296 10.3213 13.462 10.3213H14.2274C14.2598 10.3213 14.2863 10.2949 14.2863 10.2626V10.196C14.2863 9.80435 14.6048 9.48598 14.9965 9.48598C15.3878 9.48598 15.7066 9.80435 15.7066 10.196V15.3795C15.7066 15.7723 15.3883 16.0901 14.9959 16.0901C14.6035 16.0901 14.2855 15.7723 14.2855 15.3795C14.2855 15.3753 14.286 15.3706 14.2863 15.3665V11.8521C14.2863 11.8197 14.2601 11.7932 14.2276 11.793H13.462C13.4296 11.793 13.4031 11.8195 13.4031 11.8521V11.908L13.4023 11.9086C13.3739 12.6643 12.9551 13.3198 12.3417 13.6795C12.3417 13.6795 6.79883 16.2717 6.79643 16.2732C6.3186 16.5103 5.9895 17.002 5.9895 17.5717C5.9895 18.3728 6.63908 19.0219 7.43993 19.0219H22.5388C23.3398 19.0219 23.9895 18.3728 23.9895 17.5717C23.9895 17.002 23.6604 16.5103 23.1822 16.2732ZM23.1318 17.5717C23.1318 17.8957 22.8671 18.1605 22.543 18.1605H7.449C7.12508 18.1605 6.85995 17.8957 6.85995 17.5717C6.85995 17.2475 7.12508 16.9828 7.449 16.9828H22.5429C22.8671 16.9828 23.1318 17.2475 23.1318 17.5717Z" fill="white"/></svg>

<svg class="color-immutable" width="30" height="30" viewBox="0 0 30 30" fill="none" xmlns="http://www.w3.org/2000/svg"><g clip-path="url(#a)"><path d="M30 0H0v30h30V0Z" fill="#2D327D"/><path d="M25.5 3c.825 0 1.5.675 1.5 1.5v21c0 .825-.675 1.5-1.5 1.5h-21c-.825 0-1.5-.675-1.5-1.5v-21C3 3.675 3.675 3 4.5 3h21Zm0-.375h-21A1.877 1.877 0 0 0 2.625 4.5v21c0 1.034.841 1.875 1.875 1.875h21a1.877 1.877 0 0 0 1.875-1.875v-21A1.877 1.877 0 0 0 25.5 2.625Z" fill="#fff"/><path d="M23.182 16.273 17.65 13.68a2.145 2.145 0 0 1-1.06-1.771v-1.713c0-.876-.717-1.594-1.594-1.594-.876 0-1.593.718-1.593 1.594v.067c0 .032.027.058.059.058h.765a.059.059 0 0 0 .06-.058v-.067a.71.71 0 0 1 1.42 0v5.184a.71.71 0 1 1-1.421 0V11.852a.06.06 0 0 0-.058-.059h-.766a.06.06 0 0 0-.059.06v.055a2.146 2.146 0 0 1-1.061 1.772l-5.546 2.593a1.449 1.449 0 0 0 .644 2.749h15.099a1.45 1.45 0 0 0 .643-2.749Zm-.05 1.299a.59.59 0 0 1-.589.588H7.449a.59.59 0 0 1-.589-.588.59.59 0 0 1 .589-.59h15.094a.59.59 0 0 1 .589.59Z" fill="#fff"/></g><defs><clipPath id="a"><path fill="#fff" d="M0 0h30v30H0z"/></clipPath></defs></svg>
